X: 31619
T: Pant Corlan Yr Wyn
R: polka
M: 2/4
K: Dmajor
|:A|d>e fe/d/|g>f e/f/g/e/|fd d/e/f/g/|ae cA|
d2 fd|gf e>g|fd ce|dd/d/ d:|
|:a|fa- ag/f/|eg- gf/e/|df- fe/d/|c/d/e/f/ eA|
d>e fd|g>f e/f/g/e/|ff/d/ c/d/e/c/|dA D:|

